X: 737
P: Longways &c.
M: C|
L: 1/8
K: D
V: 1
|:\
e2c2 d2F2 | E2F2 G2E2 | D2A2 A2G2 | F4  D4  :|\
|:\
a3b  a2f2 | e2f2 g2e2 | d/e/f/g/ a4 g2 | f2d2 a2f2 |
g2ag f2gf | e2f2 g2e2 | d/e/f/g/ a4 g2 | f4   d4  :|\
|:\
e2c2 d2F2 | E3F  G2E2 | D2A2 A2G2 | F4   D4  :|
V: 2 clef=bass middle=d
|:\
d4 z2d2 | A4 B2c2 | d4 z2g2 | f2e2 c2A2 |\
c2A2 B2d2 | F2G2 A2F2 | d4 z2g2 | d'4 d4 :|\
|:\
d4 z2d2 | A4 B2c2 | d4 c4 | d4 z2d2 | e4
d4 | A4 B2c2 | d4 a4 | d'4 d4 :|\
|:\
d4 z2c2 | A4 B2c2 | d4 z2g2 | f4 c2B2 |\
c2A2 B2d2 | G2A2 B2G2 | d4 z2a2 | d'4 d4 :|

